X: 12
T: Lost Indian [1]
B: canberra pickers and fiddlers
B: tunes
M:4/4
L:1/8
R: reel
Q: 1/4=100
K:A
V:1 
|:"A"[E2A2] [A(f][Ac)] [Ae][Af][Ae][Ac]|[Af][Ae][Ac][Af] [Ae][Af][Ae][Ac]|[E2A2] [Af][Ac] [Ae][Af][Ae][Ac]|"E"ABcB "A"AcBA|
"A"[E2A2] [Af][Ac] [Ae][Af][Ae][Ac]|[Af][Ae][Ac][Af] [Ae][Af][Ae][Ac]|[E2A2] [Af][Ac] [Ae][Af][Ae][Ac]|"E"AcBG "A"A2 [(E2A2]:||
"A"E)F A2 [c4c4]|[c3c3]B cBAc|BAF""A "A"EFAB|cdcB "E"AcBG|"A"A2(E2 "A"E)""FAB|
"A"[c2c2]c2 (3 BcB Ac|"A"BAFA EFAB|cABc "E"AcBG|"A"A2(E2 E)FAB|[c2c2]c2 (3BcB Ac|
"A"BAFA "A"EFAB|cdcB "E"A""cBG|"A"A2(E2 E)FAB|[c2c2]c2 (3BcB Ac|
"A"BAFA "A"E""FAB|cABc "E"AcBG|\
"A"A2E2|\
|:"A"F""A2B A2A2|FAAc BAFE|
"D"FA2B A2A2|FGAc BAFE|"E"FA2B cABc|"A"AcBG A2E2:|]
% abcbook-tune_id 63ae8f1c1004752ba4c39d05
% abcbook-tune_composer_id 
% abcbook-link-0 https://www.youtube.com/watch?v=2_M-OhzvT8o
% abcbook-link-title-0 Willie Chapman - &quot;Lost Indian&quot; [Official Audio]
% abcbook-boost 0
% abcbook-difficulty 0
% abcbook-tags canberra pickers and fiddlers,old time tunes,© free
% abcbook-tablature 
% abcbook-transpose 
% abcbook-tuning AEAC#
% abcbook-lastupdated 1729468940126
% abcbook-src-url https://tunebook.net/scrape/tunes.abc
% abcbook-soundfonts 
% abcbook-repeats 1


